source/_posts/Artificial-Intelligence/Machine-Learning(IV)--Supervised-Learning.assets/boosting-flowchart.svg

<?xml version="1.0" encoding="UTF-8" standalone="no"?>
<svg
   x="0"
   y="0"
   width="650"
   height="210.33334"
   style="fill:none"
   version="1.1"
   id="svg2711"
   sodipodi:docname="boosting-flowchart.svg"
   inkscape:version="1.1.2 (b8e25be833, 2022-02-05)"
   xmlns:inkscape="http://www.inkscape.org/namespaces/inkscape"
   xmlns:sodipodi="http://sodipodi.sourceforge.net/DTD/sodipodi-0.dtd"
   xmlns="http://www.w3.org/2000/svg"
   xmlns:svg="http://www.w3.org/2000/svg">
  <defs
     id="defs2715" />
  <sodipodi:namedview
     id="namedview2713"
     pagecolor="#ffffff"
     bordercolor="#666666"
     borderopacity="1.0"
     inkscape:pageshadow="2"
     inkscape:pageopacity="0.0"
     inkscape:pagecheckerboard="0"
     showgrid="false"
     inkscape:zoom="1.6015689"
     inkscape:cx="403.97888"
     inkscape:cy="104.89714"
     inkscape:window-width="1920"
     inkscape:window-height="986"
     inkscape:window-x="-11"
     inkscape:window-y="-11"
     inkscape:window-maximized="1"
     inkscape:current-layer="svg2711" />
  <svg
     version="1.1"
     id="svg2543"
     width="100%"
     height="100%" />
  <svg
     class="role-diagram-draw-area"
     version="1.1"
     id="svg2601"
     width="100%"
     height="100%">
    <g
       class="shapes-region"
       style="fill:none;stroke:#000000"
       id="g2593">
      <g
         class="composite-shape"
         id="g2547">
        <path
           class="real"
           d="M 15,45.47 C 15,35.82 22.82,28 32.47,28 h 84.06 c 9.65,0 17.47,7.82 17.47,17.47 v 52.4 c 0,9.64 -7.82,17.46 -17.47,17.46 H 32.47 C 22.82,115.33 15,107.51 15,97.87 Z"
           style="fill:#ffffff;fill-opacity:1;stroke:#4a90e2;stroke-width:2;stroke-opacity:1"
           id="path2545" />
      </g>
      <g
         class="composite-shape"
         id="g2551">
        <path
           class="real"
           d="m 60,103.33 c 0,-4.41 3.58,-8 8,-8 h 75.53 c 4.42,0 8,3.59 8,8 v 24 c 0,4.42 -3.58,8 -8,8 H 68 c -4.42,0 -8,-3.58 -8,-8 z"
           style="fill:#4a90e2;fill-opacity:1;stroke:none;stroke-width:1;stroke-opacity:1"
           id="path2549" />
      </g>
      <g
         class="composite-shape"
         id="g2555">
        <path
           class="real"
           d="M 196,47.47 C 196,37.82 203.82,30 213.47,30 h 84.06 c 9.65,0 17.47,7.82 17.47,17.47 v 52.4 c 0,9.64 -7.82,17.46 -17.47,17.46 h -84.06 c -9.65,0 -17.47,-7.82 -17.47,-17.46 z"
           style="fill:#ffffff;fill-opacity:1;stroke:#4a90e2;stroke-width:2;stroke-opacity:1"
           id="path2553" />
      </g>
      <g
         class="composite-shape"
         id="g2559">
        <path
           class="real"
           d="m 248,20.33 c 0,-4.41 3.58,-8 8,-8 h 75.53 c 4.42,0 8,3.59 8,8 v 24 c 0,4.42 -3.58,8 -8,8 H 256 c -4.42,0 -8,-3.58 -8,-8 z"
           style="fill:#4a90e2;fill-opacity:1;stroke:none;stroke-width:1;stroke-opacity:1"
           id="path2557" />
      </g>
      <g
         class="composite-shape"
         id="g2563">
        <path
           class="real"
           d="M 384,46.47 C 384,36.82 391.82,29 401.47,29 h 94.06 c 9.65,0 17.47,7.82 17.47,17.47 v 52.4 c 0,9.64 -7.82,17.46 -17.47,17.46 h -94.06 c -9.65,0 -17.47,-7.82 -17.47,-17.46 z"
           style="fill:#ffffff;fill-opacity:1;stroke:#4a90e2;stroke-width:2;stroke-opacity:1"
           id="path2561" />
      </g>
      <g
         class="composite-shape"
         id="g2567">
        <path
           class="real"
           d="m 400,104.33 c 0,-4.41 3.58,-8 8,-8 h 113 c 4.42,0 8,3.59 8,8 v 24 c 0,4.42 -3.58,8 -8,8 H 408 c -4.42,0 -8,-3.58 -8,-8 z"
           style="fill:#4a90e2;fill-opacity:1;stroke:none;stroke-width:1;stroke-opacity:1"
           id="path2565" />
      </g>
      <g
         class="composite-shape"
         id="g2571">
        <path
           class="real"
           d="m 142,63.5 h 32 V 57.33 L 190,69.67 174,82 v -6.17 h -32 z"
           style="fill:#4a90e2;fill-opacity:0.5;stroke:#4a90e2;stroke-width:1;stroke-opacity:1"
           id="path2569" />
      </g>
      <g
         class="composite-shape"
         id="g2575">
        <path
           class="real"
           d="m 327,68.5 h 32 V 62.33 L 375,74.67 359,87 v -6.17 h -32 z"
           style="fill:#4a90e2;fill-opacity:0.5;stroke:#4a90e2;stroke-width:1;stroke-opacity:1"
           id="path2573" />
      </g>
      <g
         class="composite-shape"
         id="g2581">
        <path
           class="real"
           d="m 265.31,193.34 c 98.45,0.03 178.27,-22.57 178.28,-50.48 l 26.42,0.01 c -0.01,27.91 -79.83,50.51 -178.28,50.48"
           style="fill:#4a90e2;fill-opacity:0.5;stroke:#4a90e2;stroke-width:1;stroke-opacity:1"
           id="path2577" />
        <path
           class="real"
           d="m 291.73,193.35 c -79.24,-0.03 -146.4,-14.71 -169.58,-35 h 12.06 l -33.93,-15.61 -16.62,15.6 h 12.06 c 23.19,20.29 90.35,34.97 169.59,35 m 26.42,0.01 -26.42,-0.01"
           style="fill:#4a90e2;fill-opacity:0.5;stroke:#4a90e2;stroke-width:1;stroke-opacity:1"
           id="path2579" />
      </g>
      <g
         class="composite-shape"
         id="g2585">
        <path
           class="real"
           d="m 523,64.5 h 32 V 58.33 L 571,70.67 555,83 v -6.17 h -32 z"
           style="fill:#4a90e2;fill-opacity:0.5;stroke:#4a90e2;stroke-width:1;stroke-opacity:1"
           id="path2583" />
      </g>
      <g
         class="composite-shape"
         id="g2589">
        <path
           class="real"
           d="M 579,70.5 C 579,54.76 591.76,42 607.5,42 623.24,42 636,54.76 636,70.5 636,86.24 623.24,99 607.5,99 591.76,99 579,86.24 579,70.5 Z"
           style="fill:#ffffff;fill-opacity:1;stroke:#d0021b;stroke-width:2;stroke-opacity:1"
           id="path2587" />
      </g>
      <g
         id="g2591" />
    </g>
    <g
       id="g2595" />
    <g
       id="g2597" />
    <g
       id="g2599" />
  </svg>
  <svg
     width="806"
     height="209"
     style="font-family:Asana-Math, Asana"
     version="1.1"
     id="svg2709">
    <g
       id="g2639">
      <g
         id="g2607">
        <g
           id="g2605">
          <text
             x="33.666656"
             y="43.666672"
             style="font-style:normal;font-weight:400;font-size:18px;font-family:Arial, Helvetica, sans-serif;text-decoration:none;text-decoration-line:none;text-decoration-style:solid;text-decoration-color:#000000;dominant-baseline:text-before-edge;white-space:pre;fill:#000000;fill-opacity:1;stroke:none"
             id="text2603">样本权重</text>
        </g>
      </g>
      <g
         id="g2637">
        <g
           id="g2611">
          <text
             x="33.666656"
             y="70.864578"
             style="font-style:normal;font-weight:400;font-size:18px;font-family:Arial, Helvetica, sans-serif;text-decoration:none;text-decoration-line:none;text-decoration-style:solid;text-decoration-color:#000000;dominant-baseline:text-before-edge;white-space:pre;fill:#000000;fill-opacity:1;stroke:none"
             id="text2609">均为 </text>
        </g>
        <g
           id="g2635">
          <g
             id="g2633">
            <g
               id="g2631">
              <g
                 id="g2617">
                <g
                   transform="translate(74.677063,86.597922)"
                   id="g2615">
                  <path
                     transform="scale(0.0204,-0.0204)"
                     d="m 418,-3 v 30 l -52,3 c -55,3 -65,14 -65,66 V 700 L 60,598 67,548 217,614 V 96 C 217,44 206,33 152,30 L 96,27 V -3 c 154,3 154,3 165,3 31,0 141,-3 157,-3 z"
                     stroke="#000000"
                     stroke-opacity="1"
                     stroke-width="8"
                     fill="#000000"
                     fill-opacity="1"
                     id="path2613" />
                </g>
              </g>
              <g
                 id="g2623">
                <g
                   transform="translate(88.927063,86.597922)"
                   id="g2621">
                  <path
                     transform="scale(0.0204,-0.0204)"
                     d="M 297,714 H 242 L -37,-169 h 55 z"
                     stroke="#000000"
                     stroke-opacity="1"
                     stroke-width="8"
                     fill="#000000"
                     fill-opacity="1"
                     id="path2619" />
                </g>
              </g>
              <g
                 id="g2629">
                <g
                   transform="translate(98.833313,86.597922)"
                   id="g2627">
                  <path
                     transform="scale(0.0204,-0.0204)"
                     d="M 582,103 237,692 H 75 l -5,-28 35,-2 c 45,-2 79,-47 80,-56 L 92,102 C 80,40 74,32 38,28 L 7,25 2,-3 113,0 c 12,0 13,0 110,-3 l 5,28 -42,3 c -40,3 -49,11 -49,44 0,8 1,19 3,30 l 80,464 338,-577 h 50 l 94,553 c 21,113 23,117 60,120 l 37,2 3,27 -213,1 -5,-28 47,-2 c 26,-1 36,-8 36,-24 0,-7 -83,-522 -85,-535 z"
                     stroke="#000000"
                     stroke-opacity="1"
                     stroke-width="8"
                     fill="#000000"
                     fill-opacity="1"
                     id="path2625" />
                </g>
              </g>
            </g>
          </g>
        </g>
      </g>
    </g>
    <g
       id="g2647">
      <g
         id="g2645">
        <g
           id="g2643">
          <text
             x="77.666656"
             y="105.66667"
             style="font-style:normal;font-weight:400;font-size:18px;font-family:Arial, Helvetica, sans-serif;text-decoration:none;text-decoration-line:none;text-decoration-style:solid;text-decoration-color:#000000;dominant-baseline:text-before-edge;white-space:pre;fill:#ffffff;fill-opacity:1;stroke:none"
             id="text2641">初始化</text>
        </g>
      </g>
    </g>
    <g
       id="g2661">
      <g
         id="g2653">
        <g
           id="g2651">
          <text
             x="218.66669"
             y="57.666672"
             style="font-style:normal;font-weight:400;font-size:18px;font-family:Arial, Helvetica, sans-serif;text-decoration:none;text-decoration-line:none;text-decoration-style:solid;text-decoration-color:#000000;dominant-baseline:text-before-edge;white-space:pre;fill:#000000;fill-opacity:1;stroke:none"
             id="text2649">根据当前</text>
        </g>
      </g>
      <g
         id="g2659">
        <g
           id="g2657">
          <text
             x="218.66669"
             y="82.864578"
             style="font-style:normal;font-weight:400;font-size:18px;font-family:Arial, Helvetica, sans-serif;text-decoration:none;text-decoration-line:none;text-decoration-style:solid;text-decoration-color:#000000;dominant-baseline:text-before-edge;white-space:pre;fill:#000000;fill-opacity:1;stroke:none"
             id="text2655">样本分布</text>
        </g>
      </g>
    </g>
    <g
       id="g2669">
      <g
         id="g2667">
        <g
           id="g2665">
          <text
             x="276.66669"
             y="21.666672"
             style="font-style:normal;font-weight:400;font-size:18px;font-family:Arial, Helvetica, sans-serif;text-decoration:none;text-decoration-line:none;text-decoration-style:solid;text-decoration-color:#000000;dominant-baseline:text-before-edge;white-space:pre;fill:#ffffff;fill-opacity:1;stroke:none"
             id="text2663">抽样</text>
        </g>
      </g>
    </g>
    <g
       id="g2683">
      <g
         id="g2675">
        <g
           id="g2673">
          <text
             x="413.66669"
             y="41.666672"
             style="font-style:normal;font-weight:400;font-size:18px;font-family:Arial, Helvetica, sans-serif;text-decoration:none;text-decoration-line:none;text-decoration-style:solid;text-decoration-color:#000000;dominant-baseline:text-before-edge;white-space:pre;fill:#000000;fill-opacity:1;stroke:none"
             id="text2671">拟合当前</text>
        </g>
      </g>
      <g
         id="g2681">
        <g
           id="g2679">
          <text
             x="422.66669"
             y="66.864578"
             style="font-style:normal;font-weight:400;font-size:18px;font-family:Arial, Helvetica, sans-serif;text-decoration:none;text-decoration-line:none;text-decoration-style:solid;text-decoration-color:#000000;dominant-baseline:text-before-edge;white-space:pre;fill:#000000;fill-opacity:1;stroke:none"
             id="text2677">数据集</text>
        </g>
      </g>
    </g>
    <g
       id="g2691">
      <g
         id="g2689">
        <g
           id="g2687">
          <text
             x="410.66669"
             y="107.66667"
             style="font-style:normal;font-weight:400;font-size:18px;font-family:Arial, Helvetica, sans-serif;text-decoration:none;text-decoration-line:none;text-decoration-style:solid;text-decoration-color:#000000;dominant-baseline:text-before-edge;white-space:pre;fill:#ffffff;fill-opacity:1;stroke:none"
             id="text2685">初构建学习器</text>
        </g>
      </g>
    </g>
    <g
       id="g2699">
      <g
         id="g2697">
        <g
           id="g2695">
          <text
             x="223.66669"
             y="157.66667"
             style="font-style:normal;font-weight:400;font-size:18px;font-family:Arial, Helvetica, sans-serif;text-decoration:none;text-decoration-line:none;text-decoration-style:solid;text-decoration-color:#000000;dominant-baseline:text-before-edge;white-space:pre;fill:#000000;fill-opacity:1;stroke:none"
             id="text2693">调整样本权重</text>
        </g>
      </g>
    </g>
    <g
       id="g2707">
      <g
         id="g2705">
        <g
           id="g2703">
          <text
             x="589.66669"
             y="59.666672"
             style="font-style:normal;font-weight:400;font-size:18px;font-family:Arial, Helvetica, sans-serif;text-decoration:none;text-decoration-line:none;text-decoration-style:solid;text-decoration-color:#000000;dominant-baseline:text-before-edge;white-space:pre;fill:#000000;fill-opacity:1;stroke:none"
             id="text2701">集成</text>
        </g>
      </g>
    </g>
  </svg>
</svg>

<svg xmlns="http://www.w3.org/2000/svg" xmlns:xlink="http://www.w3.org/1999/xlink" x="0" y="0" width="662" height="211" style="
        width:662px;
        height:211px;
        background: #FFF;
        fill: none;
">
        <svg xmlns="http://www.w3.org/2000/svg"/>
        
        <svg xmlns="http://www.w3.org/2000/svg" class="role-diagram-draw-area"><g class="shapes-region" style="stroke: black; fill: none;"><g class="composite-shape"><path class="real" d=" M15,45.47 C15,35.82 22.82,28 32.47,28 L116.53,28 C126.18,28 134,35.82 134,45.47 L134,97.87 C134,107.51 126.18,115.33 116.53,115.33 L32.47,115.33 C22.82,115.33 15,107.51 15,97.87 Z" style="stroke-width: 2; stroke: rgb(74, 144, 226); fill: rgb(255, 255, 255); fill-opacity: 1; stroke-opacity: 1;"/></g><g class="composite-shape"><path class="real" d=" M60,103.33 C60,98.92 63.58,95.33 68,95.33 L143.53,95.33 C147.95,95.33 151.53,98.92 151.53,103.33 L151.53,127.33 C151.53,131.75 147.95,135.33 143.53,135.33 L68,135.33 C63.58,135.33 60,131.75 60,127.33 Z" style="stroke-width: 1; stroke: none; fill: rgb(74, 144, 226); fill-opacity: 1; stroke-opacity: 1;"/></g><g class="composite-shape"><path class="real" d=" M196,47.47 C196,37.82 203.82,30 213.47,30 L297.53,30 C307.18,30 315,37.82 315,47.47 L315,99.87 C315,109.51 307.18,117.33 297.53,117.33 L213.47,117.33 C203.82,117.33 196,109.51 196,99.87 Z" style="stroke-width: 2; stroke: rgb(74, 144, 226); stroke-opacity: 1; fill: rgb(255, 255, 255); fill-opacity: 1;"/></g><g class="composite-shape"><path class="real" d=" M248,20.33 C248,15.92 251.58,12.33 256,12.33 L331.53,12.33 C335.95,12.33 339.53,15.92 339.53,20.33 L339.53,44.33 C339.53,48.75 335.95,52.33 331.53,52.33 L256,52.33 C251.58,52.33 248,48.75 248,44.33 Z" style="stroke-width: 1; stroke: none; stroke-opacity: 1; fill: rgb(74, 144, 226); fill-opacity: 1;"/></g><g class="composite-shape"><path class="real" d=" M384,46.47 C384,36.82 391.82,29 401.47,29 L495.53,29 C505.18,29 513,36.82 513,46.47 L513,98.87 C513,108.51 505.18,116.33 495.53,116.33 L401.47,116.33 C391.82,116.33 384,108.51 384,98.87 Z" style="stroke-width: 2; stroke: rgb(74, 144, 226); stroke-opacity: 1; fill: rgb(255, 255, 255); fill-opacity: 1;"/></g><g class="composite-shape"><path class="real" d=" M400,104.33 C400,99.92 403.58,96.33 408,96.33 L521,96.33 C525.42,96.33 529,99.92 529,104.33 L529,128.33 C529,132.75 525.42,136.33 521,136.33 L408,136.33 C403.58,136.33 400,132.75 400,128.33 Z" style="stroke-width: 1; stroke: none; stroke-opacity: 1; fill: rgb(74, 144, 226); fill-opacity: 1;"/></g><g class="composite-shape"><path class="real" d=" M142,63.5 L174,63.5 L174,57.33 L190,69.67 L174,82 L174,75.83 L142,75.83 Z" style="stroke-width: 1; stroke: rgb(74, 144, 226); fill: rgb(74, 144, 226); fill-opacity: 0.5; stroke-opacity: 1;"/></g><g class="composite-shape"><path class="real" d=" M327,68.5 L359,68.5 L359,62.33 L375,74.67 L359,87 L359,80.83 L327,80.83 Z" style="stroke-width: 1; stroke: rgb(74, 144, 226); stroke-opacity: 1; fill: rgb(74, 144, 226); fill-opacity: 0.5;"/></g><g class="composite-shape"><path class="real" d=" M265.31,193.34 C363.76,193.37 443.58,170.77 443.59,142.86 L470.01,142.87 C470,170.78 390.18,193.38 291.73,193.35" style="stroke-width: 1; stroke: rgb(74, 144, 226); fill: rgb(74, 144, 226); fill-opacity: 0.5; stroke-opacity: 1;"/><path class="real" d=" M291.73,193.35 C212.49,193.32 145.33,178.64 122.15,158.35 L134.21,158.35 L100.28,142.74 L83.66,158.34 L95.72,158.34 C118.91,178.63 186.07,193.31 265.31,193.34 M291.73,193.35 L265.31,193.34" style="stroke-width: 1; stroke: rgb(74, 144, 226); fill: rgb(74, 144, 226); fill-opacity: 0.5; stroke-opacity: 1;"/></g><g class="composite-shape"><path class="real" d=" M523,64.5 L555,64.5 L555,58.33 L571,70.67 L555,83 L555,76.83 L523,76.83 Z" style="stroke-width: 1; stroke: rgb(74, 144, 226); stroke-opacity: 1; fill: rgb(74, 144, 226); fill-opacity: 0.5;"/></g><g class="composite-shape"><path class="real" d=" M579,70.5 C579,54.76 591.76,42 607.5,42 C623.24,42 636,54.76 636,70.5 C636,86.24 623.24,99 607.5,99 C591.76,99 579,86.24 579,70.5 Z" style="stroke-width: 2; stroke: rgb(208, 2, 27); fill: rgb(255, 255, 255); fill-opacity: 1; stroke-opacity: 1;"/></g><g/></g><g/><g/><g/></svg>
        <svg xmlns="http://www.w3.org/2000/svg" xmlns:xlink="http://www.w3.org/1999/xlink" width="660" height="209" style="width:660px;height:209px;font-family:Asana-Math, Asana;background:#FFF;"><g><g><g><text x="34" y="44" style="white-space:pre;stroke:none;fill:rgb(0,0,0);fill-opacity:1;font-size:18px;font-family:Arial, Helvetica, sans-serif;font-weight:400;font-style:normal;dominant-baseline:text-before-edge;text-decoration:none solid rgb(0, 0, 0);">样本权重</text></g></g><g><g><text x="34" y="71.19790649414062" style="white-space:pre;stroke:none;fill:rgb(0,0,0);fill-opacity:1;font-size:18px;font-family:Arial, Helvetica, sans-serif;font-weight:400;font-style:normal;dominant-baseline:text-before-edge;text-decoration:none solid rgb(0, 0, 0);">均为 </text></g><g><g><g><g><g transform="matrix(1,0,0,1,75.01043701171875,86.93125)"><path transform="matrix(0.020399999999999998,0,0,-0.020399999999999998,0,0)" d="M418 -3L418 27L366 30C311 33 301 44 301 96L301 700L60 598L67 548L217 614L217 96C217 44 206 33 152 30L96 27L96 -3C250 0 250 0 261 0C292 0 402 -3 418 -3Z" stroke="rgb(0,0,0)" stroke-opacity="1" stroke-width="8" fill="rgb(0,0,0)" fill-opacity="1"></path></g></g><g><g transform="matrix(1,0,0,1,89.26043701171875,86.93125)"><path transform="matrix(0.020399999999999998,0,0,-0.020399999999999998,0,0)" d="M297 714L242 714L-37 -169L18 -169Z" stroke="rgb(0,0,0)" stroke-opacity="1" stroke-width="8" fill="rgb(0,0,0)" fill-opacity="1"></path></g></g><g><g transform="matrix(1,0,0,1,99.16668701171875,86.93125)"><path transform="matrix(0.020399999999999998,0,0,-0.020399999999999998,0,0)" d="M730 103L704 86C675 67 653 56 643 56C636 56 630 65 630 76C630 86 632 95 637 116L712 413C716 430 719 446 719 454C719 471 709 482 693 482C664 482 626 464 565 421C502 376 467 341 418 272L448 409C452 429 455 444 455 451C455 470 445 482 429 482C399 482 353 460 298 418C254 384 234 363 169 275L202 408C206 424 208 439 208 451C208 470 199 482 185 482C164 482 126 461 52 408L24 388L31 368C68 391 103 414 110 414C121 414 128 404 128 389C128 338 87 145 46 2L49 -9L117 6L139 108C163 219 190 278 245 338C287 384 332 414 360 414C367 414 371 406 371 393C371 358 349 244 308 69L292 2L297 -9L366 6L387 113C403 194 437 269 481 318C536 379 586 414 618 414C626 414 631 405 631 389C631 365 628 351 606 264C566 105 550 84 550 31C550 6 561 -9 580 -9C606 -9 642 12 740 85Z" stroke="rgb(0,0,0)" stroke-opacity="1" stroke-width="8" fill="rgb(0,0,0)" fill-opacity="1"></path></g></g></g></g></g></g></g><g><g><g><text x="78" y="106" style="white-space:pre;stroke:none;fill:rgb(255,255,255);fill-opacity:1;font-size:18px;font-family:Arial, Helvetica, sans-serif;font-weight:400;font-style:normal;dominant-baseline:text-before-edge;text-decoration:none solid rgb(255, 255, 255);">初始化</text></g></g></g><g><g><g><text x="219" y="58" style="white-space:pre;stroke:none;fill:rgb(0,0,0);fill-opacity:1;font-size:18px;font-family:Arial, Helvetica, sans-serif;font-weight:400;font-style:normal;dominant-baseline:text-before-edge;text-decoration:none solid rgb(0, 0, 0);">根据当前</text></g></g><g><g><text x="219" y="83.19790649414062" style="white-space:pre;stroke:none;fill:rgb(0,0,0);fill-opacity:1;font-size:18px;font-family:Arial, Helvetica, sans-serif;font-weight:400;font-style:normal;dominant-baseline:text-before-edge;text-decoration:none solid rgb(0, 0, 0);">样本分布</text></g></g></g><g><g><g><text x="277" y="22" style="white-space:pre;stroke:none;fill:rgb(255,255,255);fill-opacity:1;font-size:18px;font-family:Arial, Helvetica, sans-serif;font-weight:400;font-style:normal;dominant-baseline:text-before-edge;text-decoration:none solid rgb(255, 255, 255);">抽样</text></g></g></g><g><g><g><text x="414" y="42" style="white-space:pre;stroke:none;fill:rgb(0,0,0);fill-opacity:1;font-size:18px;font-family:Arial, Helvetica, sans-serif;font-weight:400;font-style:normal;dominant-baseline:text-before-edge;text-decoration:none solid rgb(0, 0, 0);">拟合当前</text></g></g><g><g><text x="423" y="67.19790649414062" style="white-space:pre;stroke:none;fill:rgb(0,0,0);fill-opacity:1;font-size:18px;font-family:Arial, Helvetica, sans-serif;font-weight:400;font-style:normal;dominant-baseline:text-before-edge;text-decoration:none solid rgb(0, 0, 0);">数据集</text></g></g></g><g><g><g><text x="411" y="108" style="white-space:pre;stroke:none;fill:rgb(255,255,255);fill-opacity:1;font-size:18px;font-family:Arial, Helvetica, sans-serif;font-weight:400;font-style:normal;dominant-baseline:text-before-edge;text-decoration:none solid rgb(255, 255, 255);">初构建学习器</text></g></g></g><g><g><g><text x="224" y="158" style="white-space:pre;stroke:none;fill:rgb(0,0,0);fill-opacity:1;font-size:18px;font-family:Arial, Helvetica, sans-serif;font-weight:400;font-style:normal;dominant-baseline:text-before-edge;text-decoration:none solid rgb(0, 0, 0);">调整样本权重</text></g></g></g><g><g><g><text x="590" y="60" style="white-space:pre;stroke:none;fill:rgb(0,0,0);fill-opacity:1;font-size:18px;font-family:Arial, Helvetica, sans-serif;font-weight:400;font-style:normal;dominant-baseline:text-before-edge;text-decoration:none solid rgb(0, 0, 0);">集成</text></g></g></g></svg>
</svg>
